X: 19338
T: Jack O'Neill's Fancy
R: hornpipe
M: 4/4
K: Eminor
(3DEF|GFGA BAGF|Ee ed (3efe dc|BgdB cAFG|(3ABA (3GFE (3DED (3DEF|
GFGA BAGF|Ee ed (3efe dc|BgdB cAFG|(3ABA GF G2:|
ba|gafg e2 ba|gafg e2 ag|fgef d2 ag|fgef d2 ba|
gafg e2 ba|gafg e3 B|edef gfga|(3bag (3agf e2:|

